austria/municipalities/41614.svg

<?xml version="1.0" encoding="UTF-8"?>
<!DOCTYPE svg PUBLIC "-//W3C//DTD SVG 1.1//EN" "http://www.w3.org/Graphics/SVG/1.1/DTD/svg11.dtd">
<svg xmlns="http://www.w3.org/2000/svg" version="1.1" width="166px" height="207px" style="shape-rendering:geometricPrecision; text-rendering:geometricPrecision; image-rendering:optimizeQuality; fill-rule:evenodd; clip-rule:evenodd" xmlns:xlink="http://www.w3.org/1999/xlink">
<g><path style="opacity:1" fill="#000000" d="M -0.5,-0.5 C 54.8333,-0.5 110.167,-0.5 165.5,-0.5C 165.5,44.1667 165.5,88.8333 165.5,133.5C 157.475,172.524 134.142,196.858 95.5,206.5C 86.8333,206.5 78.1667,206.5 69.5,206.5C 29.9784,196.644 6.64509,171.644 -0.5,131.5C -0.5,87.5 -0.5,43.5 -0.5,-0.5 Z"/></g>
<g><path style="opacity:1" fill="#003266" d="M 161.5,25.5 C 155.339,25.9724 149.506,24.9724 144,22.5C 140.335,23.8753 136.502,24.8753 132.5,25.5C 128.624,24.5955 124.79,23.5955 121,22.5C 116.774,23.9073 112.441,24.9073 108,25.5C 103.146,24.6044 98.3129,23.6044 93.5,22.5C 92.1667,22.8333 90.8333,23.1667 89.5,23.5C 95.6975,24.7335 101.864,26.0669 108,27.5C 112.441,26.9073 116.774,25.9073 121,24.5C 124.934,25.699 128.934,26.699 133,27.5C 136.835,26.8847 140.502,25.8847 144,24.5C 149.506,26.9724 155.339,27.9724 161.5,27.5C 161.5,29.1667 161.5,30.8333 161.5,32.5C 158.15,32.665 154.817,32.4983 151.5,32C 149.232,30.4481 146.732,29.6148 144,29.5C 140.21,30.5955 136.376,31.5955 132.5,32.5C 128.757,31.1977 124.924,30.1977 121,29.5C 116.648,30.5149 112.315,31.5149 108,32.5C 103.241,31.2698 98.4081,30.2698 93.5,29.5C 92.1667,29.8333 90.8333,30.1667 89.5,30.5C 95.7425,31.6031 101.909,32.9365 108,34.5C 112.315,33.5149 116.648,32.5149 121,31.5C 124.934,32.699 128.934,33.699 133,34.5C 136.667,33.5 140.333,32.5 144,31.5C 146.732,31.6148 149.232,32.4481 151.5,34C 154.817,34.4983 158.15,34.665 161.5,34.5C 161.5,35.8333 161.5,37.1667 161.5,38.5C 159.658,38.7233 157.825,39.0566 156,39.5C 151.938,38.6513 147.938,37.6513 144,36.5C 136.337,39.1068 128.671,39.1068 121,36.5C 116.685,37.4851 112.352,38.4851 108,39.5C 104.988,39.2739 102.155,38.4406 99.5,37C 96.1177,36.1764 92.7844,36.343 89.5,37.5C 95.8537,38.0826 102.02,39.416 108,41.5C 112.352,40.4851 116.685,39.4851 121,38.5C 128.608,41.1573 136.275,41.1573 144,38.5C 147.938,39.6513 151.938,40.6513 156,41.5C 157.825,41.0566 159.658,40.7233 161.5,40.5C 161.667,72.5017 161.5,104.502 161,136.5C 159.254,146.906 155.588,156.573 150,165.5C 141.887,157.998 132.721,156.498 122.5,161C 120.266,162.638 118.933,164.805 118.5,167.5C 114.042,152.379 104.042,143.046 88.5,139.5C 87.5078,135.217 87.1744,130.884 87.5,126.5C 95.5,126.5 103.5,126.5 111.5,126.5C 111.5,124.5 111.5,122.5 111.5,120.5C 108.15,120.665 104.817,120.498 101.5,120C 110.339,117.208 113.172,111.374 110,102.5C 105.232,95.4695 99.0655,93.9695 91.5,98C 89.9512,99.214 88.7845,100.714 88,102.5C 87.5,71.8351 87.3334,41.1685 87.5,10.5C 84.5,10.5 81.5,10.5 78.5,10.5C 78.3332,41.1712 77.8332,71.8379 77,102.5C 70.726,94.3494 63.726,93.6828 56,100.5C 51.7876,109.196 53.9543,115.696 62.5,120C 59.1832,120.498 55.8499,120.665 52.5,120.5C 52.5,122.5 52.5,124.5 52.5,126.5C 60.8333,126.5 69.1667,126.5 77.5,126.5C 77.5,131.167 77.5,135.833 77.5,140.5C 63.1126,143.053 53.9459,151.386 50,165.5C 38.4151,154.53 27.0818,154.863 16,166.5C 9.75724,156.68 5.75724,146.013 4,134.5C 3.50002,103.502 3.33335,72.5018 3.5,41.5C 8.24708,40.8128 12.9137,39.8128 17.5,38.5C 25.6033,41.0993 33.77,41.0993 42,38.5C 46.606,39.6505 51.2726,40.6505 56,41.5C 63.033,39.4813 70.1997,38.148 77.5,37.5C 73.878,36.3414 70.2113,36.1747 66.5,37C 63.0928,38.2268 59.5928,39.0601 56,39.5C 51.1206,38.5705 46.2873,37.5705 41.5,36.5C 37.2263,37.4656 32.8929,38.1323 28.5,38.5C 24.6244,38.5456 20.9577,37.879 17.5,36.5C 12.9137,37.8128 8.24708,38.8128 3.5,39.5C 3.5,37.8333 3.5,36.1667 3.5,34.5C 8.04225,34.3949 12.3756,33.3949 16.5,31.5C 20.6439,32.6037 24.8105,33.6037 29,34.5C 33.1895,33.6037 37.3561,32.6037 41.5,31.5C 46.3267,32.6715 51.16,33.6715 56,34.5C 63.0615,32.7783 70.2282,31.445 77.5,30.5C 75.8333,30.1667 74.1667,29.8333 72.5,29.5C 67.0807,30.1898 61.7473,31.1898 56.5,32.5C 51.4601,31.7092 46.4601,30.7092 41.5,29.5C 37.2462,30.197 33.0795,31.197 29,32.5C 24.8105,31.6037 20.6439,30.6037 16.5,29.5C 12.3756,31.3949 8.04225,32.3949 3.5,32.5C 3.5,30.8333 3.5,29.1667 3.5,27.5C 8.1172,27.5117 12.4505,26.5117 16.5,24.5C 20.6439,25.6037 24.8105,26.6037 29,27.5C 33.2771,26.8889 37.4438,25.8889 41.5,24.5C 46.2308,26.022 51.0641,27.022 56,27.5C 63.1289,26.0222 70.2956,24.6888 77.5,23.5C 75.8333,23.1667 74.1667,22.8333 72.5,22.5C 67.2527,23.8102 61.9193,24.8102 56.5,25.5C 51.3841,24.97 46.3841,23.97 41.5,22.5C 37.3758,23.5952 33.2091,24.5952 29,25.5C 24.8105,24.6037 20.6439,23.6037 16.5,22.5C 12.4505,24.5117 8.1172,25.5117 3.5,25.5C 3.5,18.1667 3.5,10.8333 3.5,3.5C 56.1667,3.5 108.833,3.5 161.5,3.5C 161.5,10.8333 161.5,18.1667 161.5,25.5 Z"/></g>
<g><path style="opacity:1" fill="#cb0000" d="M 80.5,11.5 C 82.1667,11.5 83.8333,11.5 85.5,11.5C 85.5,24.8333 85.5,38.1667 85.5,51.5C 83.5,51.5 81.5,51.5 79.5,51.5C 79.8967,38.1686 80.2301,24.8353 80.5,11.5 Z"/></g>
<g><path style="opacity:1" fill="#fefffe" d="M 3.5,27.5 C 3.5,26.8333 3.5,26.1667 3.5,25.5C 8.1172,25.5117 12.4505,24.5117 16.5,22.5C 20.6439,23.6037 24.8105,24.6037 29,25.5C 33.2091,24.5952 37.3758,23.5952 41.5,22.5C 46.3841,23.97 51.3841,24.97 56.5,25.5C 61.9193,24.8102 67.2527,23.8102 72.5,22.5C 74.1667,22.8333 75.8333,23.1667 77.5,23.5C 70.2956,24.6888 63.1289,26.0222 56,27.5C 51.0641,27.022 46.2308,26.022 41.5,24.5C 37.4438,25.8889 33.2771,26.8889 29,27.5C 24.8105,26.6037 20.6439,25.6037 16.5,24.5C 12.4505,26.5117 8.1172,27.5117 3.5,27.5 Z"/></g>
<g><path style="opacity:1" fill="#fefffe" d="M 161.5,25.5 C 161.5,26.1667 161.5,26.8333 161.5,27.5C 155.339,27.9724 149.506,26.9724 144,24.5C 140.502,25.8847 136.835,26.8847 133,27.5C 128.934,26.699 124.934,25.699 121,24.5C 116.774,25.9073 112.441,26.9073 108,27.5C 101.864,26.0669 95.6975,24.7335 89.5,23.5C 90.8333,23.1667 92.1667,22.8333 93.5,22.5C 98.3129,23.6044 103.146,24.6044 108,25.5C 112.441,24.9073 116.774,23.9073 121,22.5C 124.79,23.5955 128.624,24.5955 132.5,25.5C 136.502,24.8753 140.335,23.8753 144,22.5C 149.506,24.9724 155.339,25.9724 161.5,25.5 Z"/></g>
<g><path style="opacity:1" fill="#fefffe" d="M 3.5,34.5 C 3.5,33.8333 3.5,33.1667 3.5,32.5C 8.04225,32.3949 12.3756,31.3949 16.5,29.5C 20.6439,30.6037 24.8105,31.6037 29,32.5C 33.0795,31.197 37.2462,30.197 41.5,29.5C 46.4601,30.7092 51.4601,31.7092 56.5,32.5C 61.7473,31.1898 67.0807,30.1898 72.5,29.5C 74.1667,29.8333 75.8333,30.1667 77.5,30.5C 70.2282,31.445 63.0615,32.7783 56,34.5C 51.16,33.6715 46.3267,32.6715 41.5,31.5C 37.3561,32.6037 33.1895,33.6037 29,34.5C 24.8105,33.6037 20.6439,32.6037 16.5,31.5C 12.3756,33.3949 8.04225,34.3949 3.5,34.5 Z"/></g>
<g><path style="opacity:1" fill="#fefffe" d="M 161.5,32.5 C 161.5,33.1667 161.5,33.8333 161.5,34.5C 158.15,34.665 154.817,34.4983 151.5,34C 149.232,32.4481 146.732,31.6148 144,31.5C 140.333,32.5 136.667,33.5 133,34.5C 128.934,33.699 124.934,32.699 121,31.5C 116.648,32.5149 112.315,33.5149 108,34.5C 101.909,32.9365 95.7425,31.6031 89.5,30.5C 90.8333,30.1667 92.1667,29.8333 93.5,29.5C 98.4081,30.2698 103.241,31.2698 108,32.5C 112.315,31.5149 116.648,30.5149 121,29.5C 124.924,30.1977 128.757,31.1977 132.5,32.5C 136.376,31.5955 140.21,30.5955 144,29.5C 146.732,29.6148 149.232,30.4481 151.5,32C 154.817,32.4983 158.15,32.665 161.5,32.5 Z"/></g>
<g><path style="opacity:1" fill="#fefffe" d="M 3.5,41.5 C 3.5,40.8333 3.5,40.1667 3.5,39.5C 8.24708,38.8128 12.9137,37.8128 17.5,36.5C 20.9577,37.879 24.6244,38.5456 28.5,38.5C 32.8929,38.1323 37.2263,37.4656 41.5,36.5C 46.2873,37.5705 51.1206,38.5705 56,39.5C 59.5928,39.0601 63.0928,38.2268 66.5,37C 70.2113,36.1747 73.878,36.3414 77.5,37.5C 70.1997,38.148 63.033,39.4813 56,41.5C 51.2726,40.6505 46.606,39.6505 42,38.5C 33.77,41.0993 25.6033,41.0993 17.5,38.5C 12.9137,39.8128 8.24708,40.8128 3.5,41.5 Z"/></g>
<g><path style="opacity:1" fill="#fefffe" d="M 161.5,38.5 C 161.5,39.1667 161.5,39.8333 161.5,40.5C 159.658,40.7233 157.825,41.0566 156,41.5C 151.938,40.6513 147.938,39.6513 144,38.5C 136.275,41.1573 128.608,41.1573 121,38.5C 116.685,39.4851 112.352,40.4851 108,41.5C 102.02,39.416 95.8537,38.0826 89.5,37.5C 92.7844,36.343 96.1177,36.1764 99.5,37C 102.155,38.4406 104.988,39.2739 108,39.5C 112.352,38.4851 116.685,37.4851 121,36.5C 128.671,39.1068 136.337,39.1068 144,36.5C 147.938,37.6513 151.938,38.6513 156,39.5C 157.825,39.0566 159.658,38.7233 161.5,38.5 Z"/></g>
<g><path style="opacity:1" fill="#fefffe" d="M 79.5,53.5 C 81.5,53.5 83.5,53.5 85.5,53.5C 85.5,67.1667 85.5,80.8333 85.5,94.5C 83.5,94.5 81.5,94.5 79.5,94.5C 79.5,80.8333 79.5,67.1667 79.5,53.5 Z"/></g>
<g><path style="opacity:1" fill="#cb0000" d="M 78.5,96.5 C 81.1667,96.5 83.8333,96.5 86.5,96.5C 86.5,110.833 86.5,125.167 86.5,139.5C 83.8333,139.5 81.1667,139.5 78.5,139.5C 78.5,125.167 78.5,110.833 78.5,96.5 Z"/></g>
<g><path style="opacity:1" fill="#fefffe" d="M 62.5,97.5 C 73.5193,96.6844 78.0193,101.684 76,112.5C 72.7231,118.109 67.8897,119.942 61.5,118C 57.3941,116.203 55.3941,113.037 55.5,108.5C 55.1169,102.919 57.4502,99.2527 62.5,97.5 Z"/></g>
<g><path style="opacity:1" fill="#fefffe" d="M 95.5,97.5 C 106.486,96.6533 110.986,101.653 109,112.5C 105.723,118.109 100.89,119.942 94.5,118C 90.3941,116.203 88.3941,113.037 88.5,108.5C 88.1169,102.919 90.4502,99.2527 95.5,97.5 Z"/></g>
<g><path style="opacity:1" fill="#003266" d="M 76.5,113.5 C 77.4682,115.607 77.8016,117.941 77.5,120.5C 74.4816,120.665 71.4816,120.498 68.5,120C 72.5332,119.463 75.1999,117.296 76.5,113.5 Z"/></g>
<g><path style="opacity:1" fill="#003266" d="M 87.5,113.5 C 89.4754,116.961 92.4754,119.127 96.5,120C 93.5184,120.498 90.5184,120.665 87.5,120.5C 87.5,118.167 87.5,115.833 87.5,113.5 Z"/></g>
<g><path style="opacity:1" fill="#fefffe" d="M 54.5,121.5 C 62.1667,121.5 69.8333,121.5 77.5,121.5C 77.5,122.5 77.5,123.5 77.5,124.5C 69.8333,124.5 62.1667,124.5 54.5,124.5C 54.5,123.5 54.5,122.5 54.5,121.5 Z"/></g>
<g><path style="opacity:1" fill="#fefffe" d="M 87.5,121.5 C 94.8333,121.5 102.167,121.5 109.5,121.5C 109.5,122.5 109.5,123.5 109.5,124.5C 102.167,124.5 94.8333,124.5 87.5,124.5C 87.5,123.5 87.5,122.5 87.5,121.5 Z"/></g>
<g><path style="opacity:1" fill="#fefffe" d="M -0.5,131.5 C 6.64509,171.644 29.9784,196.644 69.5,206.5C 46.1667,206.5 22.8333,206.5 -0.5,206.5C -0.5,181.5 -0.5,156.5 -0.5,131.5 Z"/></g>
<g><path style="opacity:1" fill="#fefffe" d="M 165.5,133.5 C 165.5,157.833 165.5,182.167 165.5,206.5C 142.167,206.5 118.833,206.5 95.5,206.5C 134.142,196.858 157.475,172.524 165.5,133.5 Z"/></g>
<g><path style="opacity:1" fill="#fe9900" d="M 118.5,167.5 C 128.715,158.101 138.715,158.268 148.5,168C 120.856,202.828 86.5228,211.494 45.5,194C 34.2564,187.554 24.9231,179.054 17.5,168.5C 24.6415,160.299 33.3082,158.299 43.5,162.5C 46.1667,164.5 48.5,166.833 50.5,169.5C 55.2068,152.951 66.2068,143.618 83.5,141.5C 100.753,143.691 111.919,153.024 117,169.5C 118.03,169.164 118.53,168.497 118.5,167.5 Z"/></g>
</svg>

<svg xmlns="http://www.w3.org/2000/svg" width="166" height="207" style="shape-rendering:geometricPrecision;text-rendering:geometricPrecision;image-rendering:optimizeQuality;fill-rule:evenodd;clip-rule:evenodd"><path style="opacity:1" d="M-.5-.5h166v134c-8.025 39.024-31.358 63.358-70 73h-26c-39.522-9.856-62.855-34.856-70-75V-.5z"/><path style="opacity:1" fill="#003266" d="M161.5 25.5c-6.161.472-11.994-.528-17.5-3a58.178 58.178 0 0 1-11.5 3 228.018 228.018 0 0 1-11.5-3 70.618 70.618 0 0 1-13 3 343.482 343.482 0 0 1-14.5-3l-4 1a573.912 573.912 0 0 1 18.5 4 70.618 70.618 0 0 0 13-3 122.05 122.05 0 0 0 12 3 52.301 52.301 0 0 0 11-3c5.506 2.472 11.339 3.472 17.5 3v5a50.442 50.442 0 0 1-10-.5c-2.268-1.552-4.768-2.385-7.5-2.5a228.018 228.018 0 0 1-11.5 3 74.77 74.77 0 0 0-11.5-3 2863.972 2863.972 0 0 1-13 3 152.01 152.01 0 0 0-14.5-3l-4 1a247.832 247.832 0 0 1 18.5 4c4.315-.985 8.648-1.985 13-3a122.05 122.05 0 0 0 12 3l11-3c2.732.115 5.232.948 7.5 2.5 3.317.498 6.65.665 10 .5v4a47.477 47.477 0 0 0-5.5 1 157.642 157.642 0 0 1-12-3c-7.663 2.607-15.329 2.607-23 0-4.315.985-8.648 1.985-13 3a20.908 20.908 0 0 1-8.5-2.5c-3.382-.824-6.716-.657-10 .5a77.509 77.509 0 0 1 18.5 4c4.352-1.015 8.685-2.015 13-3 7.608 2.657 15.275 2.657 23 0a157.642 157.642 0 0 0 12 3 47.477 47.477 0 0 1 5.5-1c.167 32.002 0 64.002-.5 96-1.746 10.406-5.412 20.073-11 29-8.113-7.502-17.279-9.002-27.5-4.5-2.234 1.638-3.567 3.805-4 6.5-4.458-15.121-14.458-24.454-30-28a43.123 43.123 0 0 1-1-13h24v-6a50.464 50.464 0 0 1-10-.5c8.839-2.792 11.672-8.626 8.5-17.5-4.768-7.03-10.934-8.53-18.5-4.5a11.529 11.529 0 0 0-3.5 4.5c-.5-30.665-.667-61.331-.5-92h-9a4234.564 4234.564 0 0 1-1.5 92c-6.274-8.15-13.274-8.817-21-2-4.212 8.696-2.046 15.196 6.5 19.5-3.317.498-6.65.665-10 .5v6h25v14c-14.387 2.553-23.554 10.886-27.5 25-11.585-10.97-22.918-10.637-34 1-6.243-9.82-10.243-20.487-12-32-.5-30.998-.667-61.998-.5-93a105.998 105.998 0 0 0 14-3c8.103 2.6 16.27 2.6 24.5 0 4.606 1.15 9.273 2.15 14 3a114.419 114.419 0 0 1 21.5-4c-3.622-1.159-7.289-1.325-11-.5A48.184 48.184 0 0 1 56 39.5c-4.88-.93-9.713-1.93-14.5-3a94.793 94.793 0 0 1-13 2c-3.876.046-7.542-.621-11-2a105.998 105.998 0 0 1-14 3v-5a32.627 32.627 0 0 0 13-3 259.481 259.481 0 0 0 12.5 3c4.19-.896 8.356-1.896 12.5-3a215.914 215.914 0 0 0 14.5 3 198.908 198.908 0 0 1 21.5-4l-5-1c-5.42.69-10.753 1.69-16 3a183.21 183.21 0 0 1-15-3 87.56 87.56 0 0 0-12.5 3 259.481 259.481 0 0 1-12.5-3 32.627 32.627 0 0 1-13 3v-5c4.617.012 8.95-.988 13-3a259.481 259.481 0 0 0 12.5 3 68.334 68.334 0 0 0 12.5-3 68.893 68.893 0 0 0 14.5 3 535.13 535.13 0 0 1 21.5-4l-5-1a137.824 137.824 0 0 1-16 3 80.826 80.826 0 0 1-15-3 268.794 268.794 0 0 1-12.5 3 259.481 259.481 0 0 1-12.5-3c-4.05 2.012-8.383 3.012-13 3v-22h158v22z"/><path style="opacity:1" fill="#cb0000" d="M80.5 11.5h5v40h-6c.397-13.331.73-26.665 1-40z"/><path style="opacity:1" fill="#fefffe" d="M3.5 27.5v-2c4.617.012 8.95-.988 13-3a259.481 259.481 0 0 0 12.5 3c4.21-.905 8.376-1.905 12.5-3a80.826 80.826 0 0 0 15 3c5.42-.69 10.753-1.69 16-3l5 1a535.13 535.13 0 0 0-21.5 4 68.893 68.893 0 0 1-14.5-3 68.334 68.334 0 0 1-12.5 3 259.481 259.481 0 0 1-12.5-3c-4.05 2.012-8.383 3.012-13 3zM161.5 25.5v2c-6.161.472-11.994-.528-17.5-3a52.301 52.301 0 0 1-11 3 122.05 122.05 0 0 1-12-3 70.618 70.618 0 0 1-13 3 573.912 573.912 0 0 0-18.5-4l4-1a343.482 343.482 0 0 0 14.5 3 70.618 70.618 0 0 0 13-3 228.018 228.018 0 0 0 11.5 3 58.178 58.178 0 0 0 11.5-3c5.506 2.472 11.339 3.472 17.5 3zM3.5 34.5v-2a32.627 32.627 0 0 0 13-3 259.481 259.481 0 0 0 12.5 3 87.56 87.56 0 0 1 12.5-3c4.96 1.21 9.96 2.21 15 3 5.247-1.31 10.58-2.31 16-3l5 1a198.908 198.908 0 0 0-21.5 4 215.914 215.914 0 0 1-14.5-3 259.481 259.481 0 0 1-12.5 3 259.481 259.481 0 0 1-12.5-3 32.627 32.627 0 0 1-13 3zM161.5 32.5v2a50.442 50.442 0 0 1-10-.5c-2.268-1.552-4.768-2.385-7.5-2.5l-11 3a122.05 122.05 0 0 1-12-3 2863.972 2863.972 0 0 1-13 3 247.832 247.832 0 0 0-18.5-4l4-1c4.908.77 9.741 1.77 14.5 3 4.315-.985 8.648-1.985 13-3a74.77 74.77 0 0 1 11.5 3c3.876-.904 7.71-1.904 11.5-3 2.732.115 5.232.948 7.5 2.5 3.317.498 6.65.665 10 .5zM3.5 41.5v-2a105.998 105.998 0 0 0 14-3c3.458 1.379 7.124 2.046 11 2a94.793 94.793 0 0 0 13-2c4.787 1.07 9.62 2.07 14.5 3A48.184 48.184 0 0 0 66.5 37c3.711-.825 7.378-.659 11 .5-7.3.648-14.467 1.981-21.5 4-4.727-.85-9.394-1.85-14-3-8.23 2.6-16.397 2.6-24.5 0a105.998 105.998 0 0 1-14 3zM161.5 38.5v2a47.477 47.477 0 0 0-5.5 1 157.642 157.642 0 0 1-12-3c-7.725 2.657-15.392 2.657-23 0-4.315.985-8.648 1.985-13 3a77.509 77.509 0 0 0-18.5-4c3.284-1.157 6.618-1.324 10-.5a20.908 20.908 0 0 0 8.5 2.5c4.352-1.015 8.685-2.015 13-3 7.671 2.607 15.337 2.607 23 0a157.642 157.642 0 0 0 12 3 47.477 47.477 0 0 1 5.5-1zM79.5 53.5h6v41h-6v-41z"/><path style="opacity:1" fill="#cb0000" d="M78.5 96.5h8v43h-8v-43z"/><path style="opacity:1" fill="#fefffe" d="M62.5 97.5c11.02-.816 15.52 4.184 13.5 15-3.277 5.609-8.11 7.442-14.5 5.5-4.106-1.797-6.106-4.963-6-9.5-.383-5.581 1.95-9.247 7-11zM95.5 97.5c10.986-.847 15.486 4.153 13.5 15-3.277 5.609-8.11 7.442-14.5 5.5-4.106-1.797-6.106-4.963-6-9.5-.383-5.581 1.95-9.247 7-11z"/><path style="opacity:1" fill="#003266" d="M76.5 113.5c.968 2.107 1.302 4.441 1 7a40.911 40.911 0 0 1-9-.5c4.033-.537 6.7-2.704 8-6.5zM87.5 113.5c1.975 3.461 4.975 5.627 9 6.5a40.911 40.911 0 0 1-9 .5v-7z"/><path style="opacity:1" fill="#fefffe" d="M54.5 121.5h23v3h-23v-3zM87.5 121.5h22v3h-22v-3zM-.5 131.5c7.145 40.144 30.478 65.144 70 75h-70v-75zM165.5 133.5v73h-70c38.642-9.642 61.975-33.976 70-73z"/><path style="opacity:1" fill="#fe9900" d="M118.5 167.5c10.215-9.399 20.215-9.232 30 .5-27.644 34.828-61.977 43.494-103 26-11.244-6.446-20.577-14.946-28-25.5 7.142-8.201 15.808-10.201 26-6 2.667 2 5 4.333 7 7 4.707-16.549 15.707-25.882 33-28 17.253 2.191 28.419 11.524 33.5 28 1.03-.336 1.53-1.003 1.5-2z"/></svg>
